images/social/behance.svg

<svg xmlns="http://www.w3.org/2000/svg" width="299.55" height="191.2" viewBox="0 0 299.55 191.2"><defs><style>.a{fill:#fff;}</style></defs><title>behance</title><path class="a" d="M0,54.58c28.66-.07,57.32,0,86,0a104.82,104.82,0,0,1,29.76,3.61c9.79,2.9,19.18,8.77,24.26,17.88,6.25,11,7,24.56,4.5,36.78-2.66,12.5-12.6,22-23.87,27.27,9.64,2.85,18.86,8.23,24.66,16.62,8.27,11.57,10.4,26.54,8.45,40.38a47.59,47.59,0,0,1-19.94,32.64C121.1,238.64,105.33,242,90,242.27q-45,0-90,0V54.58M40.44,86.43c.13,14.65.09,29.32,0,44,14.48,0,29,.08,43.45,0,8.59-.33,18.48-4.29,21.29-13.16,2.34-8,2.25-18.14-4.22-24.28-5.62-5.17-13.63-6.31-21-6.52-13.19,0-26.38-.05-39.57,0m0,72.08c.11,17.29.08,34.58,0,51.87q21.77,0,43.53,0c7-.18,14.4-1,20.46-4.84a20.36,20.36,0,0,0,9.33-16.47c.46-7.67-.13-16.27-5.55-22.24-5.93-6.22-14.91-8.28-23.23-8.32Q62.73,158.49,40.45,158.51Z" transform="translate(0 -54.54)"/><path class="a" d="M195.7,67.08q37.32.07,74.63,0c0,6.14,0,12.28,0,18.41q-37.35,0-74.7,0C195.73,79.35,195.68,73.22,195.7,67.08Z" transform="translate(0 -54.54)"/><path class="a" d="M217.09,104.58a76,76,0,0,1,32.1-.68A58.47,58.47,0,0,1,286.85,130c10.26,15.6,13.66,34.88,12.48,53.29q-48.12,0-96.24,0c.12,9,2.27,18.4,8.15,25.41,6.37,7.21,16.49,9.48,25.76,9.14,11.52,0,23.7-6.63,28-17.65,10.68,0,21.37-.11,32.05.07-3.75,11.07-9,22-17.67,30.09-11.66,10.7-27.8,15.29-43.38,15.37-15.2.35-30.79-3.5-43.13-12.63C179.57,223.35,171.18,208,168,192c-3.37-17.88-1.73-37,6.5-53.42a65.68,65.68,0,0,1,42.55-34M214,136.83c-7.1,5.37-10.26,14.33-11,22.92q29.92.08,59.84,0c-.82-7.86-3.23-15.94-8.74-21.82-3.87-4.27-9.6-6.26-15.16-7C230.35,129.81,220.86,131,214,136.83Z" transform="translate(0 -54.54)"/></svg>

<?xml version="1.0" encoding="UTF-8" ?>
<!DOCTYPE svg PUBLIC "-//W3C//DTD SVG 1.1//EN" "http://www.w3.org/Graphics/SVG/1.1/DTD/svg11.dtd">
<svg width="300pt" height="300pt" viewBox="0 0 300 300" version="1.1" xmlns="http://www.w3.org/2000/svg">
<g>
<path fill="#fff" opacity="1.00" d=" M 0.00 54.58 C 28.66 54.51 57.32 54.57 85.98 54.55 C 95.99 54.46 106.09 55.40 115.74 58.16 C 125.53 61.06 134.92 66.93 140.00 76.04 C 146.25 87.08 146.97 100.60 144.50 112.82 C 141.84 125.32 131.90 134.87 120.63 140.09 C 130.27 142.94 139.49 148.32 145.29 156.71 C 153.56 168.28 155.69 183.25 153.74 197.09 C 152.01 210.11 144.65 222.30 133.80 229.73 C 121.10 238.64 105.33 241.97 90.04 242.27 C 60.03 242.26 30.01 242.29 0.00 242.25 L 0.00 54.58 M 40.44 86.43 C 40.57 101.08 40.53 115.75 40.46 130.40 C 54.94 130.39 69.43 130.48 83.91 130.36 C 92.50 130.03 102.39 126.07 105.20 117.20 C 107.54 109.18 107.45 99.06 100.98 92.92 C 95.36 87.75 87.35 86.61 80.01 86.40 C 66.82 86.40 53.63 86.35 40.44 86.43 M 40.45 158.51 C 40.56 175.80 40.53 193.09 40.46 210.38 C 54.97 210.39 69.48 210.40 83.99 210.37 C 91.00 210.19 98.39 209.36 104.45 205.53 C 110.08 202.06 113.55 195.62 113.78 189.06 C 114.24 181.39 113.65 172.79 108.23 166.82 C 102.30 160.60 93.32 158.54 85.00 158.50 C 70.15 158.49 55.30 158.48 40.45 158.51 Z" />
<path fill="#fff" opacity="1.00" d=" M 195.70 67.08 C 220.58 67.13 245.46 67.13 270.33 67.08 C 270.35 73.22 270.30 79.36 270.37 85.49 C 245.47 85.47 220.57 85.47 195.67 85.49 C 195.73 79.35 195.68 73.22 195.70 67.08 Z" />
<path fill="#fff" opacity="1.00" d=" M 217.09 104.58 C 227.57 102.03 238.61 101.88 249.19 103.90 C 264.64 106.90 278.47 116.72 286.85 129.98 C 297.11 145.58 300.51 164.86 299.33 183.27 C 267.25 183.28 235.17 183.25 203.09 183.29 C 203.21 192.26 205.36 201.69 211.24 208.70 C 217.61 215.91 227.73 218.18 237.00 217.84 C 248.52 217.87 260.70 211.21 264.99 200.19 C 275.67 200.21 286.36 200.08 297.04 200.26 C 293.29 211.33 288.07 222.30 279.37 230.35 C 267.71 241.05 251.57 245.64 235.99 245.72 C 220.79 246.07 205.20 242.22 192.86 233.09 C 179.57 223.35 171.18 208.02 168.04 192.02 C 164.67 174.14 166.31 154.98 174.54 138.60 C 182.87 121.78 198.90 109.09 217.09 104.58 M 214.02 136.83 C 206.92 142.20 203.76 151.16 203.05 159.75 C 223.00 159.80 242.94 159.80 262.89 159.75 C 262.07 151.89 259.66 143.81 254.15 137.93 C 250.28 133.66 244.55 131.67 238.99 130.89 C 230.35 129.81 220.86 131.03 214.02 136.83 Z" />
</g>
</svg>
